X: 35153
T: Rond Loudieg
R: polka
M: 2/4
K: Adorian
"Am" AG AB|c2 B2|AG AB|cc B2|Ae (3 ABd|cc B2|AG AB|c2 B2||
"Am"A2 Bc|"G"de ec|Bd dB|A2 GA|BG Bc|"Em"d2 ec|Bd dB|A2 G2||

